packages/foundations/assets/icons/functional/images/transportation/car_16_inverted.svg

<svg width="16" height="16" viewBox="0 0 16 16" fill="none" xmlns="http://www.w3.org/2000/svg">
<g clip-path="url(#clip0_2214_6704)">
<path fill-rule="evenodd" clip-rule="evenodd" d="M10.9046 2.77692C11.5773 2.77692 12.217 3.25233 12.3919 3.905C12.5085 4.34011 12.7253 5.29742 13.0424 6.77692H14.4V8.37692H13.516C13.396 9.46939 13.316 10.1705 13.2759 10.4801C13.2359 10.7898 13.0775 11.1087 12.8007 11.4369V13.2231H10.8V12.1697C9.86664 12.3078 8.93331 12.3769 7.99998 12.3769C7.06664 12.3769 6.13331 12.3078 5.19998 12.1697L5.19459 13.2231H3.19998L3.19996 11.4377C2.91534 11.1125 2.7487 10.7406 2.70006 10.322C2.65142 9.9034 2.57913 9.25504 2.48318 8.37692H1.59998V6.77692H2.95678L3.56571 4.03162C3.75611 3.38756 4.31998 2.7823 5.0356 2.7823C5.75122 2.7823 10.2319 2.77692 10.9046 2.77692ZM6.9097 9.18371C6.70299 9.21506 6.52693 9.35253 6.44637 9.54546L6.20346 10.5117C6.17422 10.7761 6.29744 11.0163 6.59188 11.1369C6.88632 11.2575 7.25228 11.0527 7.35397 10.8076L7.46798 10.3769H8.53118L8.64295 10.8001C8.75252 11.0746 9.05081 11.2327 9.3455 11.159C9.64018 11.0853 9.82898 10.8055 9.79649 10.5117L9.55358 9.54546C9.47303 9.35253 9.29696 9.21506 9.09025 9.18371H6.9097ZM3.93454 8.65947C3.61166 8.58493 3.28949 8.78624 3.21495 9.10912C3.14662 9.40509 3.31008 9.70047 3.5865 9.80506L4.83384 10.0987C5.15672 10.1732 5.47889 9.97188 5.55343 9.64901C5.62176 9.35303 5.4583 9.05765 5.18188 8.95306L3.93454 8.65947ZM12.7934 9.10912C12.7251 8.81315 12.4487 8.61933 12.1544 8.64649L10.9046 8.92941C10.5817 9.00395 10.3804 9.32613 10.4549 9.64901C10.5233 9.94498 10.7997 10.1388 11.094 10.1116L12.3438 9.82871C12.6667 9.75417 12.868 9.432 12.7934 9.10912ZM11.1662 4.13692H4.83458L4.31998 6.77692H11.68L11.1662 4.13692Z" fill="#1A1C1F"/>
</g>
<defs>
<clipPath id="clip0_2214_6704">
<rect width="16" height="16" fill="white"/>
</clipPath>
</defs>
</svg>

<svg xmlns="http://www.w3.org/2000/svg" width="16" height="16" fill="none"><g clip-path="url(#a)"><path fill="#1A1C1F" fill-rule="evenodd" d="M10.905 2.777c.672 0 1.312.475 1.487 1.128q.175.652.65 2.872H14.4v1.6h-.884q-.18 1.638-.24 2.103t-.475.957v1.786H10.8V12.17a19.1 19.1 0 0 1-5.6 0l-.005 1.053H3.2v-1.785a2 2 0 0 1-.5-1.116 317 317 0 0 1-.217-1.945H1.6v-1.6h1.357l.609-2.745c.19-.644.754-1.25 1.47-1.25zM6.91 9.184a.6.6 0 0 0-.464.361l-.243.967c-.029.264.094.504.389.625.294.12.66-.084.762-.33l.114-.43h1.063l.112.423a.6.6 0 0 0 1.153-.288l-.242-.967a.6.6 0 0 0-.464-.361zm-2.975-.525a.6.6 0 0 0-.349 1.146l1.248.294a.6.6 0 0 0 .348-1.146zm8.858.45a.6.6 0 0 0-.639-.463l-1.25.283a.6.6 0 0 0 .19 1.183l1.25-.283a.6.6 0 0 0 .45-.72m-1.627-4.972H4.835l-.515 2.64h7.36z" clip-rule="evenodd"/></g><defs><clipPath id="a"><path fill="#fff" d="M0 0h16v16H0z"/></clipPath></defs></svg>
